!!!SOCIAL_FUNCTION:	war songs
!!!PDT:	1913
!!!OTL: No_86_If_He_Is_a_Warrior.krn
!!!REG: Great_Lakes
!!!LANG: Non-Tone
!!!LING_GROUP: Algonquin
**kern	**kern
*staff2	*staff1
*clefF4	*clefF4
*k[f#c#g#]	*k[f#c#g#]
*M3/4	*M3/4
16r	16e\
=1	=1
4GG#^/	4e\
4GG#^/	4c#\
4GG#^/	12e\L
.	12c#\
.	12B\J
=2||	=2||
*M2/4	*M2/4
4GG#^/	8A\L
.	8A\J
4GG#^/	4A\
=3	=3
2r	16A\LK
.	8.A\J
.	8.r
.	16e\
=4||	=4||
*M3/4	*M3/4
2.r	4e\
.	4c#\
.	12e\L
.	12c#\
.	12B\J
=5||	=5||
*M2/4	*M2/4
2r	8A\L
.	8A\J
.	4A\
=6	=6
2r	16A\LK
.	8.A\J
.	8.r
.	16B\
=7||	=7||
*M3/4	*M3/4
2.r	8B\L
.	8B\J
.	8.A\L
.	16B\Jk
.	12B\L
.	12F#\
.	12E\J
=8||	=8||
*M2/4	*M2/4
2r	8E\L
.	8E\J
.	4E\
=9	=9
2r	16E\LK
.	8.E\J
.	8.r
.	16F#\
=10	=10
2r	8F#\L
.	8B\J
.	8.A\L
.	16B\Jk
=11||	=11||
*M3/4	*M3/4
2.r	16A\LK
.	8.A\J
.	8E\L
.	8E\J
.	4E\
=12||	=12||
*M2/4	*M2/4
2r	12F#\L
.	12F#\
.	12E\J
.	4E\
=13	=13
2r	4.E\
.	8E\
=14||	=14||
*M3/4	*M3/4
2.r	2.E\
=15	=15
2.r	8B\L
.	8B\J
.	8B\L
.	8B\J
.	8.B\L
.	16B\Jk
=16||	=16||
*M2/4	*M2/4
2r	8B\L
.	(16A\L
.	16E\JJ)
.	8E\L
.	8E\J
=17||	=17||
*M3/4	*M3/4
2.r	4E\
.	8E\L
.	8E\J
.	8.r
.	16F#\
=18||	=18||
*M2/4	*M2/4
2r	8F#\L
.	8B\J
.	8.A\L
.	16B\Jk
=19||	=19||
*M3/4	*M3/4
2.r	16A\LK
.	8.A\J
.	8E\L
.	8E\J
.	4E\
=20||	=20||
*M2/4	*M2/4
2r	12F#\L
.	12F#\
.	12E\J
.	4E\
=21	=21
2r	4.E\
.	8E\
=22||	=22||
*M3/4	*M3/4
2.r	[4E\
.	4..E\]
.	16r
==	==
*-	*-
